X: 27906
T: Mountain Madness
R: jig
M: 6/8
K: Adorian
|:ABA a2e|gde Bde|ABA a2e|gde BdG|
ABA a2e|gde BdG|~c3 Bcd|ecG BAG:|
|:A3 e2A|BGB dBG|ABA Aae|gde Bde|
ABA e2A|BGB dBG|~c3 Bcd|ecG BAG:|

